libs/ui/packages/crypto-icons/src/svg/MONA.svg

<svg width="24" height="24" viewBox="0 0 24 24" fill="none">
<path d="M17.6498 10.0612L16.581 5.25073L14.4833 8.56123C12.8524 8.16746 11.1513 8.16746 9.52051 8.56123L7.42876 5.25073L6.35626 10.0612C5.20501 10.9822 4.50226 12.186 4.50226 13.5075C4.50226 16.4025 7.85926 18.7492 12 18.7492C16.1408 18.7492 19.4978 16.4017 19.4978 13.5075C19.497 12.186 18.8003 10.9822 17.649 10.0612H17.6498ZM7.83376 12.2632H7.33426L8.55451 10.8562H9.44251L7.83376 12.2632ZM11.9618 15.7012L9.88726 12.0472L10.3995 11.7547L10.8623 12.5685H13.128L13.611 11.751L14.118 12.0525L11.9618 15.7012ZM16.1715 12.2632L14.562 10.8562H15.456L16.6748 12.2632H16.1715ZM11.9715 14.5245L11.1968 13.1595H12.7778L11.9715 14.5245Z" fill="#DEC799"/>
</svg>

<svg width="24" height="24" viewBox="0 0 24 24" fill="none"><path fill="#dec799" d="m17.65 10.061-1.069-4.81-2.098 3.31a10.6 10.6 0 0 0-4.962 0l-2.092-3.31-1.073 4.81c-1.151.921-1.854 2.125-1.854 3.447 0 2.895 3.357 5.241 7.498 5.241 4.14 0 7.498-2.347 7.498-5.241-.001-1.322-.698-2.526-1.849-3.447m-9.816 2.202h-.5l1.22-1.407h.889zm4.128 3.438-2.075-3.654.512-.292.463.813h2.266l.483-.817.507.302zm4.21-3.438-1.61-1.407h.894l1.219 1.407zm-4.2 2.262-.775-1.366h1.58z"/></svg>
